src/img/credito inmobiliario.svg

<svg width="74" height="71" viewBox="0 0 74 71" fill="none" xmlns="http://www.w3.org/2000/svg">
<path d="M60.6406 55.0182C60.6406 54.5494 60.4844 54.1588 60.1719 53.8463C59.8594 53.5338 59.4688 53.3776 59 53.3776H54V48.3776C54 47.9088 53.8177 47.5182 53.4531 47.2057C53.1406 46.8411 52.776 46.6588 52.3594 46.6588C51.8906 46.6588 51.474 46.8411 51.1094 47.2057C50.7969 47.5182 50.6406 47.9088 50.6406 48.3776V53.3776H45.6406C45.1719 53.3776 44.7812 53.5338 44.4688 53.8463C44.1562 54.1588 44 54.5494 44 55.0182C44 55.4869 44.1562 55.8776 44.4688 56.1901C44.7812 56.5026 45.1719 56.6588 45.6406 56.6588H50.6406V61.6588C50.6406 62.1276 50.7969 62.5182 51.1094 62.8307C51.474 63.1953 51.8906 63.3776 52.3594 63.3776C52.776 63.3776 53.1406 63.1953 53.4531 62.8307C53.8177 62.5182 54 62.1276 54 61.6588V56.6588H59C59.4688 56.6588 59.8594 56.5026 60.1719 56.1901C60.4844 55.8776 60.6406 55.4869 60.6406 55.0182ZM73.2188 66.5026C73.4792 66.0338 73.6615 65.513 73.7656 64.9401C73.9219 64.3671 74 63.7942 74 63.2213C74 62.5963 73.8958 61.9713 73.6875 61.3463C73.5312 60.7734 73.2708 60.2265 72.9062 59.7057L57.9062 36.4244C57.9062 36.4244 57.9062 36.3984 57.9062 36.3463C57.2812 35.4088 56.474 34.6796 55.4844 34.1588C54.4948 33.638 53.4271 33.3776 52.2812 33.3776C51.1875 33.3776 50.1458 33.638 49.1562 34.1588C48.1667 34.6796 47.3594 35.4088 46.7344 36.3463C46.7344 36.3984 46.7344 36.4244 46.7344 36.4244L31.7344 59.7057C31.3698 60.2265 31.0833 60.7734 30.875 61.3463C30.7188 61.9713 30.6406 62.5963 30.6406 63.2213C30.6406 63.7942 30.6927 64.3671 30.7969 64.9401C30.9531 65.513 31.1615 66.0338 31.4219 66.5026C31.7344 67.0234 32.0729 67.4921 32.4375 67.9088C32.8542 68.3255 33.2969 68.6901 33.7656 69.0026C34.3385 69.3671 34.9115 69.6276 35.4844 69.7838C36.0573 69.9401 36.6562 70.0182 37.2812 70.0182H67.2812C67.9062 70.0182 68.5052 69.9401 69.0781 69.7838C69.7031 69.6276 70.276 69.3671 70.7969 69.0026C71.3177 68.6901 71.7604 68.3255 72.125 67.9088C72.5417 67.4921 72.9062 67.0234 73.2188 66.5026ZM70.0938 61.5026C70.8229 62.6484 70.875 63.7942 70.25 64.9401C69.625 66.0859 68.6615 66.6588 67.3594 66.6588H37.3594C36.0052 66.6588 35.0156 66.0859 34.3906 64.9401C33.7656 63.7942 33.8177 62.6484 34.5469 61.5026L49.5469 38.2213C49.8594 37.7005 50.25 37.3099 50.7188 37.0494C51.2396 36.789 51.7865 36.6588 52.3594 36.6588C52.8802 36.6588 53.375 36.789 53.8438 37.0494C54.3646 37.3099 54.7812 37.7005 55.0938 38.2213L70.0938 61.5026ZM66.5781 20.2526C66.9427 20.513 67.1771 20.8776 67.2812 21.3463C67.3854 21.8151 67.3073 22.2317 67.0469 22.5963C66.7344 23.0651 66.3438 23.3255 65.875 23.3776C65.4062 23.3776 65.0417 23.2734 64.7812 23.0651L38.2188 4.54944C36.9167 3.76819 35.4844 3.37756 33.9219 3.37756C32.4115 3.37756 31.0052 3.76819 29.7031 4.54944L3.21875 23.0651C2.80208 23.3255 2.35938 23.4036 1.89062 23.2994C1.47396 23.1953 1.13542 22.9609 0.875 22.5963C0.666667 22.1796 0.588542 21.763 0.640625 21.3463C0.744792 20.8776 1.00521 20.513 1.42188 20.2526L27.9062 1.73694C29.7812 0.591105 31.8125 0.0181885 34 0.0181885C36.1875 0.0181885 38.1927 0.591105 40.0156 1.73694L66.5781 20.2526ZM28.9219 57.9088C28.7135 58.2734 28.5052 58.638 28.2969 59.0026C28.1406 59.3151 28.0104 59.6536 27.9062 60.0182H17.2812C14.5208 60.0182 12.151 59.0546 10.1719 57.1276C8.24479 55.1484 7.28125 52.7786 7.28125 50.0182V26.1901L27.9062 11.7369C29.7812 10.5911 31.8125 10.0182 34 10.0182C36.1875 10.0182 38.1927 10.5911 40.0156 11.7369L60.6406 26.1901V34.4713C60.224 33.8463 59.7292 33.2734 59.1562 32.7526C58.5833 32.1796 57.9583 31.7109 57.2812 31.3463V27.9088L38.2188 14.5494C36.9167 13.7682 35.4844 13.3776 33.9219 13.3776C32.4115 13.3776 31.0052 13.7682 29.7031 14.5494L10.6406 27.9088V50.0182C10.6406 51.8411 11.2917 53.4036 12.5938 54.7057C13.8958 56.0078 15.4583 56.6588 17.2812 56.6588H24V40.0182C24 39.0807 24.3125 38.2994 24.9375 37.6744C25.6146 36.9974 26.3958 36.6588 27.2812 36.6588H40.6406C40.9531 36.6588 41.2396 36.7109 41.5 36.8151C41.8125 36.8671 42.0729 36.9713 42.2812 37.1276L40.4062 40.0182H27.2812V56.6588H29.7031L28.9219 57.9088Z" fill="#56504C"/>
</svg>

<svg width="74" height="71" fill="none" xmlns="http://www.w3.org/2000/svg"><path d="M60.64 55.018c0-.469-.156-.86-.468-1.172-.313-.312-.703-.468-1.172-.468h-5v-5c0-.47-.182-.86-.547-1.172-.312-.365-.677-.547-1.094-.547-.468 0-.885.182-1.25.547-.312.312-.468.703-.468 1.172v5h-5c-.47 0-.86.156-1.172.468-.313.313-.469.703-.469 1.172s.156.86.469 1.172c.312.313.703.469 1.172.469h5v5c0 .469.156.86.468 1.172.365.364.782.547 1.25.547.417 0 .782-.183 1.094-.547A1.48 1.48 0 0054 61.659v-5h5c.469 0 .86-.156 1.172-.469.312-.312.469-.703.469-1.172zm12.58 11.485c.26-.47.443-.99.547-1.563A6.506 6.506 0 0074 63.221a5.9 5.9 0 00-.313-1.875 5.268 5.268 0 00-.78-1.64l-15-23.282v-.078a6.516 6.516 0 00-2.423-2.187 6.775 6.775 0 00-3.203-.781 6.63 6.63 0 00-3.125.78 6.517 6.517 0 00-2.422 2.188v.078l-15 23.282a7.06 7.06 0 00-.859 1.64 7.708 7.708 0 00-.234 1.875c0 .573.052 1.146.156 1.72.156.572.364 1.093.625 1.562.312.52.65.99 1.015 1.406.417.416.86.781 1.329 1.094a6.294 6.294 0 001.718.78 6.797 6.797 0 001.797.235h30c.625 0 1.224-.078 1.797-.234a5.15 5.15 0 001.719-.781 5.52 5.52 0 001.328-1.094 7.269 7.269 0 001.094-1.406zm-3.125-5c.729 1.145.781 2.291.156 3.437s-1.588 1.719-2.89 1.719h-30c-1.355 0-2.344-.573-2.97-1.719-.624-1.146-.572-2.292.157-3.437l15-23.282c.312-.52.703-.911 1.172-1.172.52-.26 1.067-.39 1.64-.39.521 0 1.016.13 1.485.39.52.26.937.651 1.25 1.172l15 23.282zm-3.516-41.25c.365.26.6.625.703 1.093.104.47.026.886-.234 1.25-.313.47-.703.73-1.172.782-.469 0-.833-.105-1.094-.313L38.22 4.55c-1.302-.78-2.735-1.171-4.297-1.171-1.51 0-2.917.39-4.219 1.171L3.22 23.065c-.417.26-.86.339-1.328.234a1.735 1.735 0 01-1.016-.703 2.153 2.153 0 01-.234-1.25c.104-.468.364-.833.78-1.093L27.907 1.737A11.474 11.474 0 0134 .018c2.188 0 4.193.573 6.016 1.719l26.562 18.516zM28.922 57.909l-.625 1.094a5.872 5.872 0 00-.39 1.015H17.28c-2.76 0-5.13-.963-7.11-2.89-1.926-1.98-2.89-4.35-2.89-7.11V26.19l20.625-14.453A11.475 11.475 0 0134 10.018c2.188 0 4.193.573 6.016 1.719L60.64 26.19v8.281a9.254 9.254 0 00-1.485-1.718 8.03 8.03 0 00-1.875-1.407V27.91L38.22 14.549c-1.302-.78-2.735-1.171-4.297-1.171-1.51 0-2.917.39-4.219 1.171L10.641 27.91v22.11c0 1.822.65 3.385 1.953 4.687 1.302 1.302 2.864 1.953 4.687 1.953H24V40.02c0-.938.313-1.72.938-2.345.677-.677 1.458-1.015 2.343-1.015h13.36c.312 0 .599.052.859.156.313.052.573.156.781.313l-1.875 2.89H27.281v16.64h2.422l-.781 1.25z" fill="#56504C"/></svg>
